M104 S200.000
M109 S200.000
G21 ;metric values
G90 ;absolute positioning
M82 ;set extruder to absolute mode
M107 ;start with the fan off
G28 X0 Y0 ;move X/Y to min endstops
G28 Z0 ;move Z to min endstops
G1 Z15.0 F9000 ;move the platform down 15mm
G92 E0 ;zero the extruded length
G1 F200 E6 ;extrude 3mm of feed stock
G92 E0 ;zero the extruded length again
G1 F9000
;Put printing message on LCD screen
M117 Printing...
;Generated with Cura_SteamEngine DEV
;LAYER:0
G1 F1500.000 E-4.50000
G0 F9000.00000 X102.516 Y93.937 Z0.300
G0 X60.621 Y144.605
G0 X58.882 Y146.711
G0 X58.796 Y146.761
G0 X58.882 Y146.711
;TYPE:WALL-INNER
G1 F1500.000 E0.00000
G1 F900.00000 X58.986 Y146.891 E0.00391
G1 X45.103 Y171.041 E0.52790
G1 X44.895 Y171.041 E0.53181
G1 X30.820 Y146.765 E1.05966
G1 X58.350 Y146.712 E1.57751
G1 F1500.00000 E-2.92249
G0 F81000.00000 X58.882 Y146.711
G0 F9000.000 X58.796 Y146.812
G0 X44.895 Y171.041
G0 X44.405 Y172.171
G0 X44.319 Y172.272
G0 X44.405 Y172.171
G1 F1500.000 E1.58752
G1 F900.00000 X30.419 Y196.501 E2.11541
G1 X30.211 Y196.501 E2.11932
G1 X16.239 Y172.403 E2.64330
G1 X16.343 Y172.223 E2.64721
G1 X43.873 Y172.171 E3.16507
G1 F1500.00000 E-1.33493
G0 F81000.00000 X44.405 Y172.171
G0 F9000.000 X44.319 Y172.272
G0 X16.343 Y172.223
G0 X15.737 Y171.042
G0 X15.651 Y170.993
G0 X15.737 Y171.042
G1 F1500.000 E3.17507
G1 F900.00000 X15.529 Y171.042 E3.17899
G1 X1.453 Y146.764 E3.70687
G1 X29.517 Y146.711 E4.23477
G1 X29.621 Y146.891 E4.23868
G1 X16.002 Y170.581 E4.75270
G0 F81000.00000 X15.737 Y171.042
G0 F9000.000 X15.406 Y171.627
;TYPE:WALL-OUTER
G1 F1500.000 E4.76270
G1 F900.00000 X0.759 Y146.365 E5.31199
G1 X30.416 Y146.309 E5.86986
G1 X30.384 Y146.365 E5.87107
G1 X59.782 Y146.309 E6.42406
G1 X44.998 Y172.026 E6.98205
G1 X44.974 Y171.985 E6.98295
G1 X30.317 Y197.481 E7.53614
G1 X15.593 Y172.087 E8.08831
G0 F81000.00000 X15.366 Y171.696
G0 X15.406 Y171.627
G0 F9000.000 X15.748 Y171.824
G1 F1500.000 E8.09831
G1 F900.00000 X44.625 Y171.771 E8.64151
G1 X44.740 Y171.571 E8.64585
G1 X30.255 Y146.589 E9.18905
G1 X16.013 Y171.363 E9.72658
G0 F81000.00000 X15.748 Y171.824
G0 F9000.000 X16.858 Y172.422
;TYPE:SKIN
G1 F1500.000 E9.73659
G1 F900.00000 X34.112 Y189.675 E10.19557
G0 F9000.00000 X34.318 Y189.316
G1 F900.000 X17.423 Y172.420 E10.64502
G0 F9000.00000 X17.988 Y172.420
G1 F900.000 X34.525 Y188.957 E11.08494
G0 F9000.00000 X34.731 Y188.598
G1 F900.000 X18.552 Y172.418 E11.51535
G0 F9000.00000 X19.117 Y172.418
G1 F900.000 X34.938 Y188.238 E11.93621
G0 F9000.00000 X35.144 Y187.879
G1 F900.000 X19.681 Y172.416 E12.34756
G0 F9000.00000 X20.246 Y172.415
G1 F900.000 X35.351 Y187.520 E12.74939
G0 F9000.00000 X35.557 Y187.161
G1 F900.000 X20.810 Y172.414 E13.14169
G0 F9000.00000 X21.375 Y172.413
G1 F900.000 X35.764 Y186.802 E13.52447
G0 F9000.00000 X35.970 Y186.442
G1 F900.000 X21.940 Y172.412 E13.89769
G0 F9000.00000 X22.505 Y172.411
G1 F900.000 X36.176 Y186.083 E14.26139
G0 F9000.00000 X36.383 Y185.724
G1 F900.000 X23.069 Y172.410 E14.61557
G0 F9000.00000 X23.634 Y172.409
G1 F900.000 X36.589 Y185.365 E14.96021
G0 F9000.00000 X36.796 Y185.006
G1 F900.000 X24.198 Y172.408 E15.29534
G0 F9000.00000 X24.763 Y172.407
G1 F900.000 X37.002 Y184.646 E15.62093
G0 F9000.00000 X37.209 Y184.287
G1 F900.000 X25.327 Y172.406 E15.93700
G0 F9000.00000 X25.892 Y172.405
G1 F900.000 X37.415 Y183.928 E16.24354
G0 F9000.00000 X37.622 Y183.569
G1 F900.000 X26.457 Y172.403 E16.54056
G0 F9000.00000 X27.022 Y172.403
G1 F900.000 X37.828 Y183.209 E16.82803
G0 F9000.00000 X38.035 Y182.850
G1 F900.000 X27.586 Y172.401 E17.10599
G0 F9000.00000 X28.151 Y172.401
G1 F900.000 X38.241 Y182.491 E17.37441
G0 F9000.00000 X38.448 Y182.132
G1 F900.000 X28.715 Y172.399 E17.63333
G0 F9000.00000 X29.280 Y172.398
G1 F900.000 X38.654 Y181.773 E17.88271
G0 F9000.00000 X38.861 Y181.413
G1 F900.000 X29.844 Y172.397 E18.12257
G0 F9000.00000 X30.409 Y172.396
G1 F900.000 X39.067 Y181.054 E18.35289
G0 F9000.00000 X39.274 Y180.695
G1 F900.000 X30.974 Y172.395 E18.57369
G0 F9000.00000 X31.539 Y172.394
G1 F900.000 X39.480 Y180.336 E18.78495
G0 F9000.00000 X39.687 Y179.977
G1 F900.000 X32.103 Y172.393 E18.98670
G0 F9000.00000 X32.668 Y172.392
G1 F900.000 X39.893 Y179.617 E19.17890
G0 F9000.00000 X40.100 Y179.258
G1 F900.000 X33.232 Y172.391 E19.36159
G0 F9000.00000 X33.797 Y172.390
G1 F900.000 X40.306 Y178.899 E19.53474
G0 F9000.00000 X40.512 Y178.540
G1 F900.000 X34.361 Y172.389 E19.69837
G0 F9000.00000 X34.926 Y172.388
G1 F900.000 X40.719 Y178.181 E19.85248
G0 F9000.00000 X40.925 Y177.821
G1 F900.000 X35.491 Y172.386 E19.99705
G0 F9000.00000 X36.056 Y172.386
G1 F900.000 X41.132 Y177.462 E20.13208
G0 F9000.00000 X41.338 Y177.103
G1 F900.000 X36.620 Y172.384 E20.25760
G0 F9000.00000 X37.185 Y172.384
G1 F900.000 X41.545 Y176.744 E20.37359
G0 F9000.00000 X41.751 Y176.384
G1 F900.000 X37.749 Y172.382 E20.48005
G0 F9000.00000 X38.314 Y172.382
G1 F900.000 X41.958 Y176.025 E20.57697
G0 F9000.00000 X42.164 Y175.666
G1 F900.000 X38.878 Y172.380 E20.66439
G0 F9000.00000 X39.443 Y172.379
G1 F900.000 X42.371 Y175.307 E20.74228
G0 F9000.00000 X42.577 Y174.948
G1 F900.000 X40.008 Y172.378 E20.81063
G0 F9000.00000 X40.573 Y172.377
G1 F900.000 X42.784 Y174.588 E20.86945
G0 F9000.00000 X42.990 Y174.229
G1 F900.000 X41.137 Y172.376 E20.91874
G0 F9000.00000 X41.702 Y172.375
G1 F900.000 X43.197 Y173.870 E20.95851
G0 F9000.00000 X43.403 Y173.511
G1 F900.000 X42.266 Y172.374 E20.98876
G0 F9000.00000 X42.831 Y172.373
G1 F900.000 X43.610 Y173.152 E21.00948
G0 F9000.00000 X43.605 Y172.582
G1 X43.991 Y172.402 E21.01591
G0 X44.023 Y172.433
G0 X33.905 Y190.034
G1 F900.000 X16.740 Y172.869 E21.47254
G0 F9000.00000 X17.521 Y174.216
G1 F900.000 X33.699 Y190.394 E21.90291
G0 F9000.00000 X33.492 Y190.753
G1 F900.000 X18.302 Y175.562 E22.30701
G0 F9000.00000 X19.082 Y176.908
G1 F900.000 X33.286 Y191.112 E22.68487
G0 F9000.00000 X33.079 Y191.471
G1 F900.000 X19.863 Y178.255 E23.03644
G0 F9000.00000 X20.643 Y179.601
G1 F900.000 X32.873 Y191.830 E23.36177
G0 F9000.00000 X32.666 Y192.190
G1 F900.000 X21.424 Y180.947 E23.66085
G0 F9000.00000 X22.205 Y182.294
G1 F900.000 X32.460 Y192.549 E23.93365
G0 F9000.00000 X32.253 Y192.908
G1 F900.000 X22.985 Y183.640 E24.18020
G0 F9000.00000 X23.766 Y184.986
G1 F900.000 X32.047 Y193.267 E24.40049
G0 F9000.00000 X31.841 Y193.627
G1 F900.000 X24.547 Y186.333 E24.59453
G0 F9000.00000 X25.327 Y187.679
G1 F900.000 X31.634 Y193.986 E24.76231
G0 F9000.00000 X31.428 Y194.345
G1 F900.000 X26.108 Y189.025 E24.90383
G0 F9000.00000 X26.889 Y190.372
G1 F900.000 X31.221 Y194.704 E25.01907
G0 F9000.00000 X31.015 Y195.063
G1 F900.000 X27.669 Y191.718 E25.10807
G0 F9000.00000 X28.451 Y193.065
G1 F900.000 X30.808 Y195.423 E25.17078
G0 F9000.00000 X29.916 Y195.096
G1 F6521.739 X30.203 Y195.949 E25.19415
G1 X29.916 Y195.096 E25.21751
G0 F9000.00000 X29.231 Y194.411
G0 X28.451 Y193.065
G1 F900.000 X30.808 Y195.423 E25.28022
G0 F9000.00000 X31.015 Y195.063
G1 F900.000 X27.669 Y191.718 E25.36922
G0 F9000.00000 X26.889 Y190.372
G1 F900.000 X31.221 Y194.704 E25.48446
G0 F9000.00000 X31.428 Y194.345
G1 F900.000 X26.108 Y189.025 E25.62598
G0 F9000.00000 X25.327 Y187.679
G1 F900.000 X31.634 Y193.986 E25.79376
G0 F9000.00000 X31.841 Y193.627
G1 F900.000 X24.547 Y186.333 E25.98780
G0 F9000.00000 X23.766 Y184.986
G1 F900.000 X32.047 Y193.267 E26.20809
G0 F9000.00000 X32.253 Y192.908
G1 F900.000 X22.985 Y183.640 E26.45464
G0 F9000.00000 X22.205 Y182.294
G1 F900.000 X32.460 Y192.549 E26.72745
G0 F9000.00000 X32.666 Y192.190
G1 F900.000 X21.424 Y180.947 E27.02652
G0 F9000.00000 X20.643 Y179.601
G1 F900.000 X32.873 Y191.830 E27.35185
G0 F9000.00000 X33.079 Y191.471
G1 F900.000 X19.863 Y178.255 E27.70342
G0 F9000.00000 X19.082 Y176.908
G1 F900.000 X33.286 Y191.112 E28.08128
G0 F9000.00000 X33.492 Y190.753
G1 F900.000 X18.302 Y175.562 E28.48538
G0 F9000.00000 X17.521 Y174.216
G1 F900.000 X33.699 Y190.394 E28.91575
G0 F9000.00000 X33.905 Y190.034
G1 F900.000 X16.740 Y172.869 E29.37238
G0 F9000.00000 X16.858 Y172.422
G1 F900.000 X34.112 Y189.675 E29.83136
G0 F9000.00000 X34.318 Y189.316
G1 F900.000 X17.423 Y172.420 E30.28081
G0 F9000.00000 X17.988 Y172.420
G1 F900.000 X34.525 Y188.957 E30.72073
G0 F9000.00000 X34.731 Y188.598
G1 F900.000 X18.552 Y172.418 E31.15114
G0 F9000.00000 X19.117 Y172.418
G1 F900.000 X34.938 Y188.238 E31.57200
G0 F9000.00000 X35.144 Y187.879
G1 F900.000 X19.681 Y172.416 E31.98335
G0 F9000.00000 X20.246 Y172.415
G1 F900.000 X35.351 Y187.520 E32.38518
G0 F9000.00000 X35.557 Y187.161
G1 F900.000 X20.810 Y172.414 E32.77748
G0 F9000.00000 X21.375 Y172.413
G1 F900.000 X35.764 Y186.802 E33.16026
G0 F9000.00000 X35.970 Y186.442
G1 F900.000 X21.940 Y172.412 E33.53348
G0 F9000.00000 X22.505 Y172.411
G1 F900.000 X36.176 Y186.083 E33.89718
G0 F9000.00000 X36.383 Y185.724
G1 F900.000 X23.069 Y172.410 E34.25136
G0 F9000.00000 X23.634 Y172.409
G1 F900.000 X36.589 Y185.365 E34.59600
G0 F9000.00000 X36.796 Y185.006
G1 F900.000 X24.198 Y172.408 E34.93113
G0 F9000.00000 X24.763 Y172.407
G1 F900.000 X37.002 Y184.646 E35.25672
G0 F9000.00000 X37.209 Y184.287
G1 F900.000 X25.327 Y172.406 E35.57279
G0 F9000.00000 X25.892 Y172.405
G1 F900.000 X37.415 Y183.928 E35.87933
G0 F9000.00000 X37.622 Y183.569
G1 F900.000 X26.457 Y172.403 E36.17635
G0 F9000.00000 X27.022 Y172.403
G1 F900.000 X37.828 Y183.209 E36.46382
G0 F9000.00000 X38.035 Y182.850
G1 F900.000 X27.586 Y172.401 E36.74178
G0 F9000.00000 X28.151 Y172.401
G1 F900.000 X38.241 Y182.491 E37.01020
G0 F9000.00000 X38.448 Y182.132
G1 F900.000 X28.715 Y172.399 E37.26912
G0 F9000.00000 X29.280 Y172.398
G1 F900.000 X38.654 Y181.773 E37.51850
G0 F9000.00000 X38.861 Y181.413
G1 F900.000 X29.844 Y172.397 E37.75836
G0 F9000.00000 X30.409 Y172.396
G1 F900.000 X39.067 Y181.054 E37.98868
G0 F9000.00000 X39.274 Y180.695
G1 F900.000 X30.974 Y172.395 E38.20948
G0 F9000.00000 X31.539 Y172.394
G1 F900.000 X39.480 Y180.336 E38.42074
G0 F9000.00000 X39.687 Y179.977
G1 F900.000 X32.103 Y172.393 E38.62249
G0 F9000.00000 X32.668 Y172.392
G1 F900.000 X39.893 Y179.617 E38.81469
G0 F9000.00000 X40.100 Y179.258
G1 F900.000 X33.232 Y172.391 E38.99738
G0 F9000.00000 X33.797 Y172.390
G1 F900.000 X40.306 Y178.899 E39.17053
G0 F9000.00000 X40.512 Y178.540
G1 F900.000 X34.361 Y172.389 E39.33416
G0 F9000.00000 X34.926 Y172.388
G1 F900.000 X40.719 Y178.181 E39.48827
G0 F9000.00000 X40.925 Y177.821
G1 F900.000 X35.491 Y172.386 E39.63284
G0 F9000.00000 X36.056 Y172.386
G1 F900.000 X41.132 Y177.462 E39.76787
G0 F9000.00000 X41.338 Y177.103
G1 F900.000 X36.620 Y172.384 E39.89339
G0 F9000.00000 X37.185 Y172.384
G1 F900.000 X41.545 Y176.744 E40.00938
G0 F9000.00000 X41.751 Y176.384
G1 F900.000 X37.749 Y172.382 E40.11584
G0 F9000.00000 X38.314 Y172.382
G1 F900.000 X41.958 Y176.025 E40.21276
G0 F9000.00000 X42.164 Y175.666
G1 F900.000 X38.878 Y172.380 E40.30018
G0 F9000.00000 X39.443 Y172.379
G1 F900.000 X42.371 Y175.307 E40.37807
G0 F9000.00000 X42.577 Y174.948
G1 F900.000 X40.008 Y172.378 E40.44642
G0 F9000.00000 X40.573 Y172.377
G1 F900.000 X42.784 Y174.588 E40.50524
G0 F9000.00000 X42.990 Y174.229
G1 F900.000 X41.137 Y172.376 E40.55454
G0 F9000.00000 X41.702 Y172.375
G1 F900.000 X43.197 Y173.870 E40.59431
G0 F9000.00000 X43.403 Y173.511
G1 F900.000 X42.266 Y172.374 E40.62455
G0 F9000.00000 X42.831 Y172.373
G1 F900.000 X43.610 Y173.152 E40.64527
G0 F9000.00000 X43.605 Y172.582
G1 X43.991 Y172.402 E40.65170
G1 F1500.00000 E36.15170
G0 F9000.00000 X44.023 Y172.433
G0 X22.138 Y172.212
G0 X22.127 Y172.213
G0 X16.819 Y169.161
G0 X16.826 Y169.146
G0 X22.104 Y159.565
G1 F1500.000 E40.65170
G1 F900.00000 X9.486 Y146.948 E40.98736
G0 F9000.00000 X10.050 Y146.946
G1 F900.000 X22.310 Y159.206 E41.31350
G0 F9000.00000 X22.517 Y158.847
G1 F900.000 X10.615 Y146.945 E41.63012
G0 F9000.00000 X11.180 Y146.944
G1 F900.000 X22.723 Y158.488 E41.93720
G0 F9000.00000 X22.930 Y158.128
G1 F900.000 X11.745 Y146.943 E42.23474
G0 F9000.00000 X12.309 Y146.942
G1 F900.000 X23.136 Y157.769 E42.52277
G0 F9000.00000 X23.343 Y157.410
G1 F900.000 X12.874 Y146.941 E42.80126
G0 F9000.00000 X13.438 Y146.940
G1 F900.000 X23.549 Y157.051 E43.07024
G0 F9000.00000 X23.755 Y156.692
G1 F900.000 X14.003 Y146.939 E43.32968
G0 F9000.00000 X14.567 Y146.938
G1 F900.000 X23.962 Y156.332 E43.57959
G0 F9000.00000 X24.168 Y155.973
G1 F900.000 X15.132 Y146.937 E43.81997
G0 F9000.00000 X15.697 Y146.936
G1 F900.000 X24.375 Y155.614 E44.05082
G0 F9000.00000 X24.581 Y155.255
G1 F900.000 X16.262 Y146.935 E44.27214
G0 F9000.00000 X16.826 Y146.933
G1 F900.000 X24.788 Y154.895 E44.48394
G0 F9000.00000 X24.994 Y154.536
G1 F900.000 X17.391 Y146.933 E44.68620
G0 F9000.00000 X17.955 Y146.931
G1 F900.000 X25.201 Y154.177 E44.87896
G0 F9000.00000 X25.407 Y153.818
G1 F900.000 X18.520 Y146.931 E45.06217
G0 F9000.00000 X19.084 Y146.929
G1 F900.000 X25.614 Y153.459 E45.23588
G0 F9000.00000 X25.820 Y153.099
G1 F900.000 X19.649 Y146.929 E45.40003
G0 F9000.00000 X20.214 Y146.927
G1 F900.000 X26.027 Y152.740 E45.55467
G0 F9000.00000 X26.233 Y152.381
G1 F900.000 X20.779 Y146.926 E45.69977
G0 F9000.00000 X21.343 Y146.925
G1 F900.000 X26.440 Y152.022 E45.83536
G0 F9000.00000 X26.646 Y151.663
G1 F900.000 X21.908 Y146.924 E45.96141
G0 F9000.00000 X22.472 Y146.923
G1 F900.000 X26.853 Y151.303 E46.07794
G0 F9000.00000 X27.059 Y150.944
G1 F900.000 X23.037 Y146.922 E46.18494
G0 F9000.00000 X23.601 Y146.921
G1 F900.000 X27.266 Y150.585 E46.28242
G0 F9000.00000 X27.472 Y150.226
G1 F900.000 X24.166 Y146.919 E46.37038
G0 F9000.00000 X24.731 Y146.919
G1 F900.000 X27.678 Y149.867 E46.44879
G0 F9000.00000 X27.885 Y149.507
G1 F900.000 X25.295 Y146.917 E46.51769
G0 F9000.00000 X25.860 Y146.916
G1 F900.000 X28.091 Y149.148 E46.57705
G0 F9000.00000 X28.298 Y148.789
G1 F900.000 X26.424 Y146.915 E46.62690
G0 F9000.00000 X26.989 Y146.914
G1 F900.000 X28.505 Y148.430 E46.66723
G0 F9000.00000 X28.712 Y148.071
G1 F900.000 X27.553 Y146.913 E46.69805
G0 F9000.00000 X28.118 Y146.912
G1 F900.000 X28.918 Y147.712 E46.71933
G0 F9000.00000 X28.904 Y147.132
G1 X29.289 Y146.952 E46.72631
G0 X29.331 Y146.994
G0 X21.897 Y159.924
G1 F900.000 X8.921 Y146.948 E47.07150
G0 F9000.00000 X8.357 Y146.950
G1 F900.000 X21.691 Y160.284 E47.42621
G0 F9000.00000 X21.484 Y160.643
G1 F900.000 X7.792 Y146.950 E47.79046
G0 F9000.00000 X7.228 Y146.952
G1 F900.000 X21.278 Y161.002 E48.16422
G0 F9000.00000 X21.071 Y161.361
G1 F900.000 X6.663 Y146.953 E48.54751
G0 F9000.00000 X6.098 Y146.954
G1 F900.000 X20.865 Y161.720 E48.94033
G0 F9000.00000 X20.658 Y162.080
G1 F900.000 X5.533 Y146.955 E49.34268
G0 F9000.00000 X4.969 Y146.956
G1 F900.000 X20.452 Y162.439 E49.75456
G0 F9000.00000 X20.245 Y162.798
G1 F900.000 X4.405 Y146.958 E50.17594
G0 F9000.00000 X3.840 Y146.958
G1 F900.000 X20.039 Y163.157 E50.60687
G0 F9000.00000 X19.832 Y163.517
G1 F900.000 X3.276 Y146.960 E51.04731
G0 F9000.00000 X2.711 Y146.960
G1 F900.000 X19.626 Y163.876 E51.49730
G0 F9000.00000 X19.419 Y164.234
G1 F900.000 X2.146 Y146.962 E51.95678
G0 F9000.00000 X2.102 Y147.483
G1 F900.000 X19.212 Y164.593 E52.41195
G0 F9000.00000 X19.006 Y164.953
G1 F900.000 X2.882 Y148.829 E52.84088
G0 F9000.00000 X3.662 Y150.175
G1 F900.000 X18.799 Y165.312 E53.24356
G0 F9000.00000 X18.593 Y165.671
G1 F900.000 X4.443 Y151.521 E53.61998
G0 F9000.00000 X5.224 Y152.868
G1 F900.000 X18.386 Y166.030 E53.97011
G0 F9000.00000 X18.180 Y166.390
G1 F900.000 X6.004 Y154.213 E54.29403
G0 F9000.00000 X6.784 Y155.559
G1 F900.000 X17.973 Y166.749 E54.59170
G0 F9000.00000 X17.767 Y167.108
G1 F900.000 X7.565 Y156.906 E54.86309
G0 F9000.00000 X8.345 Y158.251
G1 F900.000 X17.560 Y167.467 E55.10825
G0 F9000.00000 X17.354 Y167.826
G1 F900.000 X9.125 Y159.598 E55.32714
G0 F9000.00000 X9.906 Y160.944
G1 F900.000 X17.148 Y168.186 E55.51979
G0 F9000.00000 X16.941 Y168.545
G1 F900.000 X10.686 Y162.290 E55.68619
G0 F9000.00000 X11.467 Y163.636
G1 F900.000 X16.735 Y168.904 E55.82633
G0 F9000.00000 X16.528 Y169.263
G1 F900.000 X12.247 Y164.982 E55.94021
G0 F9000.00000 X13.027 Y166.328
G1 F900.000 X16.322 Y169.622 E56.02786
G0 F9000.00000 X16.115 Y169.982
